src/assets/metronic/worbby/global/img/icon-diy.svg

<?xml version="1.0" encoding="UTF-8"?>
<svg width="45px" height="45px" viewBox="0 0 45 45" version="1.1" xmlns="http://www.w3.org/2000/svg" xmlns:xlink="http://www.w3.org/1999/xlink">
    <!-- Generator: Sketch 41.2 (35397) - http://www.bohemiancoding.com/sketch -->
    <title>icon-diy</title>
    <desc>Created with Sketch.</desc>
    <defs>
        <linearGradient x1="0%" y1="49.9979293%" x2="99.9874969%" y2="49.9979293%" id="linearGradient-1">
            <stop stop-color="#FFB247" offset="0%"></stop>
            <stop stop-color="#FFCB33" offset="100%"></stop>
        </linearGradient>
    </defs>
    <g id="Worbby-Worbbior" stroke="none" stroke-width="1" fill="none" fill-rule="evenodd">
        <g id="Categories-List-All" transform="translate(-20.000000, -391.000000)">
            <g id="icon-diy" transform="translate(20.000000, 391.000000)">
                <g>
                    <path d="M18.75,45 C29.10525,45 37.5,36.60525 37.5,26.25 C37.5,15.89475 29.10525,7.5 18.75,7.5 C8.39475,7.5 0,15.89475 0,26.25 C0,36.60525 8.39475,45 18.75,45" id="Fill-1" fill="url(#linearGradient-1)"></path>
                    <path d="M42.692175,27.77745 L39.552675,30.91695 C39.403425,31.0647 39.162675,31.06545 39.013425,30.91695 L26.594175,18.49695 L30.272175,14.8182 L42.692175,27.2382 C42.840675,27.3867 42.840675,27.6282 42.692175,27.77745 M23.411925,17.40795 C22.595175,16.59045 19.687425,15.3912 17.672175,17.40795 L17.391675,17.68845 C17.114175,17.9652 17.005425,18.36945 17.106675,18.7482 C17.277675,19.3902 17.093175,20.07945 16.625925,20.54745 L14.532675,22.63995 C14.383425,22.78845 14.142675,22.7892 13.993425,22.63995 L9.807675,18.4542 C9.659175,18.3057 9.659175,18.06345 9.807675,17.91495 L11.900175,15.82245 C12.368175,15.3552 13.057425,15.16995 13.700175,15.3417 C14.078175,15.44145 14.482425,15.33345 14.759175,15.0567 L15.039675,14.77545 C16.907175,12.90945 16.034925,10.0617 15.993675,9.9312 C15.948675,9.79395 15.984675,9.64545 16.085925,9.54345 C24.441675,1.1892 32.291925,1.4682 37.406175,3.1722 C37.583925,3.23145 37.691925,3.40995 37.661175,3.5952 C37.645425,3.6957 37.595175,3.7632 37.554675,3.8037 C37.513425,3.84495 37.422675,3.91545 37.285425,3.91545 C31.688925,3.91545 28.166925,5.60595 27.221175,6.1242 C26.958675,6.2682 26.766675,6.51195 26.688675,6.8007 C26.609925,7.08945 26.652675,7.39695 26.806425,7.65345 L29.240175,11.70945 C29.330925,11.85945 29.306925,12.05145 29.183175,12.17595 C28.976925,12.38145 28.861425,12.6612 28.861425,12.9522 C28.861425,12.98145 28.867425,13.0107 28.869675,13.0392 L24.807675,17.1012 C24.780675,17.0997 24.755175,17.0862 24.727425,17.0862 C24.446925,17.0862 24.165675,17.19345 23.951175,17.40795 C23.801925,17.5557 23.561175,17.55645 23.411925,17.40795 M44.246175,25.6842 L31.340925,12.77895 C31.596675,12.0687 31.533675,11.26095 31.124925,10.5792 L29.312925,7.5597 C30.772425,6.9507 33.472425,6.11295 37.285425,6.11295 C37.974675,6.11295 38.621925,5.8437 39.107925,5.3577 C39.493425,4.9722 39.743925,4.4847 39.830925,3.94695 C40.034175,2.6922 39.306675,1.48995 38.100675,1.08795 C32.399175,-0.8118 23.681175,-1.1583 14.532675,7.98945 C13.841925,8.6802 13.601925,9.68595 13.899675,10.5972 C13.904925,10.6137 14.359425,12.16395 13.597425,13.0992 C12.405675,12.98895 11.205675,13.4097 10.346925,14.26845 L8.254425,16.3617 C7.248675,17.3667 7.248675,19.00245 8.254425,20.0082 L12.440175,24.19395 C12.926175,24.68145 13.574175,24.9492 14.262675,24.9492 C14.951925,24.9492 15.599175,24.68145 16.085925,24.19395 L18.179175,22.1007 C19.037925,21.2427 19.458675,20.0427 19.348425,18.85095 C20.264175,18.11145 21.637425,18.7617 21.857925,18.9612 C22.559175,19.66245 23.648925,19.8912 24.554925,19.5657 L37.459425,32.4702 C37.962675,32.9727 38.622675,33.2247 39.283425,33.2247 C39.943425,33.2247 40.604175,32.9727 41.106675,32.4702 L44.246175,29.3307 C45.251175,28.3257 45.251175,26.6892 44.246175,25.6842" id="Fill-3" fill="#1E2225"></path>
                </g>
            </g>
        </g>
    </g>
</svg>

<svg xmlns="http://www.w3.org/2000/svg" width="45" height="45"><defs><linearGradient id="a" x1="0%" x2="99.9875%" y1="49.9979%" y2="49.9979%"><stop stop-color="#FFB247" offset="0%"/><stop stop-color="#FFCB33" offset="100%"/></linearGradient></defs><g fill="none" fill-rule="evenodd"><path fill="url(#a)" d="M18.75 45c10.3553 0 18.75-8.3948 18.75-18.75S29.1053 7.5 18.75 7.5C8.3948 7.5 0 15.8948 0 26.25S8.3948 45 18.75 45"/><path fill="#1E2225" d="M42.6922 27.7775l-3.1395 3.1395c-.1493.1477-.39.1484-.5393 0l-12.4192-12.42 3.678-3.6788 12.42 12.42c.1485.1485.1485.39 0 .5393M23.412 17.408c-.8168-.8176-3.7246-2.0168-5.7398 0l-.2805.2804c-.2775.2768-.3863.681-.285 1.0598.171.642-.0135 1.3313-.4808 1.7993L14.5326 22.64c-.1493.1485-.39.1492-.5393 0L9.8077 18.454c-.1485-.1485-.1485-.3908 0-.5392l2.0925-2.0925c.468-.4673 1.1572-.6525 1.8-.4808.378.0998.7822-.0083 1.059-.285l.2805-.2813c1.8675-1.866.9952-4.7137.954-4.8442-.045-.1372-.009-.2858.0922-.3878 8.3557-8.3542 16.206-8.0752 21.3202-6.3712.1777.0593.2857.2377.255.423-.0158.1005-.066.168-.1065.2085-.0413.0412-.132.1117-.2693.1117-5.5965 0-9.1185 1.6905-10.0642 2.2088-.2625.144-.4545.3877-.5325.6765-.0788.2888-.036.5963.1177.8528l2.4338 4.056c.0907.15.0667.342-.057.4665-.2063.2054-.3218.4852-.3218.7762 0 .0293.006.0585.0083.087l-4.062 4.062c-.027-.0015-.0525-.015-.0803-.015-.2805 0-.5617.1072-.7762.3217-.1493.1477-.39.1485-.5393 0M44.246 25.684L31.341 12.779c.2557-.7103.1927-1.518-.216-2.1998l-1.812-3.0195c1.4594-.609 4.1594-1.4468 7.9724-1.4468.6893 0 1.3365-.2693 1.8225-.7553.3854-.3855.636-.873.723-1.4108.2032-1.2548-.5243-2.457-1.7303-2.859-5.7015-1.8998-14.4195-2.2463-23.568 6.9014-.6908.6908-.9308 1.6966-.633 2.6078.0052.0165.4597 1.5667-.3023 2.502-1.1917-.1102-2.3917.3105-3.2505 1.1692l-2.0926 2.0933c-1.0057 1.005-1.0057 2.6408 0 3.6465l4.1858 4.1858c.486.4875 1.134.7552 1.8225.7552.6892 0 1.3365-.2677 1.8232-.7553l2.0932-2.0933c.8587-.858 1.2795-2.058 1.1692-3.2497.9158-.7395 2.289-.0893 2.5095.1102.7012.7012 1.791.93 2.697.6045l12.9044 12.9045c.5033.5025 1.1633.7545 1.824.7545.66 0 1.3208-.252 1.8233-.7545l3.1395-3.1395c1.005-1.005 1.005-2.6415 0-3.6465"/></g></svg>
